tests/fixtures/lut/invalid/directive_after_data.cube
LUT_1D_SIZE 2
0 0 0
TITLE "Too late"
1 1 1
