tests/fixtures/lut/invalid/duplicate_title.cube
TITLE "First"
TITLE "Second"
LUT_1D_SIZE 2
0 0 0
1 1 1
