tests/fixtures/lut/invalid/duplicate_domain.cube
LUT_1D_SIZE 2
DOMAIN_MIN 0 0 0
DOMAIN_MIN 0 0 0
0 0 0
1 1 1
