tests/fixtures/lut/invalid/duplicate_range.cube
LUT_1D_SIZE 2
LUT_1D_INPUT_RANGE 0 1
LUT_1D_INPUT_RANGE 0 1
0 0 0
1 1 1
