tests/fixtures/lut/invalid/extra_rows.cube
LUT_1D_SIZE 2
0 0 0
1 1 1
0.5 0.5 0.5
