tests/fixtures/lut/invalid/range_without_size.cube
LUT_3D_INPUT_RANGE 0 1
LUT_1D_SIZE 2
0 0 0
1 1 1
