tests/fixtures/lut/invalid/unknown_directive.cube
LUT_1D_SIZE 2
LUT_MAGIC_MODE 1
0 0 0
1 1 1
