tests/fixtures/lut/invalid/video_range.cube
LUT_1D_SIZE 2
LUT_IN_VIDEO_RANGE
0 0 0
1 1 1
