tests/fixtures/lut/asymmetric_lattice_order_3d.cube
TITLE "Asymmetric red-fastest lattice ordering"
LUT_3D_SIZE 2
0.00 0.01 0.02
0.10 0.11 0.12
0.20 0.21 0.22
0.30 0.31 0.32
0.40 0.41 0.42
0.50 0.51 0.52
0.60 0.61 0.62
0.70 0.71 0.72
