tests/fixtures/lut/clamp_range_remap_1d.cube
TITLE "Clamp and Range Remap"
LUT_1D_SIZE 2
DOMAIN_MIN 0.25 0.25 0.25
DOMAIN_MAX 0.75 0.75 0.75
0 0 0
1 1 1
