tests/fixtures/lut/combined_shaper_swap_3d.cube
TITLE "Combined Half Shaper and Red Blue Swap"
LUT_1D_SIZE 2
LUT_3D_SIZE 2
0 0 0
0.5 0.5 0.5
0 0 0
0 0 1
0 1 0
0 1 1
1 0 0
1 0 1
1 1 0
1 1 1
