tests/fixtures/lut/fractional_precision_1d.cube
TITLE "Fractional Precision"
LUT_1D_SIZE 2
0.123456 0.234567 0.345678
0.654321 0.765432 0.876543
