tests/fixtures/lut/identity_1d.cube
# VFX Photo Lab deterministic LUT conformance fixture
TITLE "Identity 1D"
LUT_1D_SIZE 4
0.000000 0.000000 0.000000
0.3333333333 0.3333333333 0.3333333333
0.6666666667 0.6666666667 0.6666666667
1.000000 1.000000 1.000000
