tests/fixtures/lut/invert_1d.cube
TITLE "Invert"
LUT_1D_SIZE 2
1 1 1
0 0 0
