tests/fixtures/lut/isolate_red_3d.cube
TITLE "Isolate Red"
LUT_3D_SIZE 2
0 0 0
1 0 0
0 0 0
1 0 0
0 0 0
1 0 0
0 0 0
1 0 0
