tests/fixtures/lut/stepped_1d.cube
TITLE "Stepped 1D"
LUT_1D_SIZE 4
0.0 0.0 0.0
0.0 0.5 1.0
1.0 0.5 0.0
1.0 1.0 1.0
