tests/fixtures/lut/stepped_3d.cube
TITLE "Stepped 3D"
LUT_3D_SIZE 3
0.0 0.0 0.0
0.0 0.0 0.0
1.0 0.0 0.0
0.0 0.0 0.0
0.0 0.0 0.0
1.0 0.0 0.0
0.0 1.0 0.0
0.0 1.0 0.0
1.0 1.0 0.0
0.0 0.0 0.0
0.0 0.0 0.0
1.0 0.0 0.0
0.0 0.0 0.0
0.0 0.0 0.0
1.0 0.0 0.0
0.0 1.0 0.0
0.0 1.0 0.0
1.0 1.0 0.0
0.0 0.0 1.0
0.0 0.0 1.0
1.0 0.0 1.0
0.0 0.0 1.0
0.0 0.0 1.0
1.0 0.0 1.0
0.0 1.0 1.0
0.0 1.0 1.0
1.0 1.0 1.0
