tests/fixtures/lut/wide_domain_1d.cube
TITLE "Wide finite domain"
LUT_1D_SIZE 2
DOMAIN_MIN -2048 -1024 -512
DOMAIN_MAX 4096 2048 1024
-32 -24 -16
32 24 16
