tests/fixtures/lut/wide_finite_values_1d.cube
TITLE "Wide Finite Values"
LUT_1D_SIZE 2
-32 -24 -20
32 24 20
